icons/whatsapp-fill.svg

<svg xmlns="http://www.w3.org/2000/svg" width="24" height="24" fill="none"><g clip-path="url(#a)"><g><path fill="#121212" d="M2.00401 22L3.35601 17.032C2.46515 15.5049 1.99711 13.768 2.00001 12C2.00001 6.477 6.47701 2 12 2C17.523 2 22 6.477 22 12C22 17.523 17.523 22 12 22C10.2328 22.0029 8.49667 21.5352 6.97001 20.645L2.00401 22ZM8.39101 7.308C8.26188 7.31602 8.13569 7.35003 8.02001 7.408C7.91153 7.46943 7.81251 7.54622 7.72601 7.636C7.60601 7.749 7.53801 7.847 7.46501 7.942C7.09542 8.423 6.89662 9.01342 6.90001 9.62C6.90201 10.11 7.03001 10.587 7.23001 11.033C7.63901 11.935 8.31201 12.89 9.20101 13.775C9.41501 13.988 9.62401 14.202 9.84901 14.401C10.9524 15.3725 12.2673 16.073 13.689 16.447L14.258 16.534C14.443 16.544 14.628 16.53 14.814 16.521C15.1053 16.506 15.3896 16.4271 15.647 16.29C15.813 16.202 15.891 16.158 16.03 16.07C16.03 16.07 16.073 16.042 16.155 15.98C16.29 15.88 16.373 15.809 16.485 15.692C16.568 15.606 16.64 15.505 16.695 15.39C16.773 15.227 16.851 14.916 16.883 14.657C16.907 14.459 16.9 14.351 16.897 14.284C16.893 14.177 16.804 14.066 16.707 14.019L16.125 13.758C16.125 13.758 15.255 13.379 14.724 13.137C14.668 13.1126 14.608 13.0987 14.547 13.096C14.4786 13.089 14.4095 13.0967 14.3443 13.1186C14.2791 13.1405 14.2193 13.1761 14.169 13.223V13.221C14.164 13.221 14.097 13.278 13.374 14.154C13.3325 14.2098 13.2754 14.2519 13.2098 14.2751C13.1443 14.2982 13.0733 14.3013 13.006 14.284C12.9409 14.2666 12.877 14.2445 12.815 14.218C12.691 14.166 12.648 14.146 12.563 14.109L12.558 14.107C11.9859 13.8572 11.4562 13.5198 10.988 13.107C10.862 12.997 10.745 12.877 10.625 12.761C10.2316 12.3842 9.88873 11.958 9.60501 11.493L9.54601 11.398C9.50364 11.3342 9.46937 11.2653 9.44401 11.193C9.40601 11.046 9.50501 10.928 9.50501 10.928C9.50501 10.928 9.74801 10.662 9.86101 10.518C9.9551 10.3983 10.0429 10.2738 10.124 10.145C10.242 9.955 10.279 9.76 10.217 9.609C9.93701 8.925 9.64701 8.244 9.34901 7.568C9.29001 7.434 9.11501 7.338 8.95601 7.319C8.90201 7.313 8.84801 7.307 8.79401 7.303C8.65972 7.29633 8.52515 7.29766 8.39101 7.307V7.308Z"/></g></g><defs><clipPath id="a"><rect width="24" height="24" fill="white"/></clipPath></defs></svg>

<svg width="24" height="24" fill="none" xmlns="http://www.w3.org/2000/svg"><g clip-path="url(#a)"><path d="m2.004 22 1.352-4.968A9.954 9.954 0 0 1 2 12C2 6.477 6.477 2 12 2s10 4.477 10 10-4.477 10-10 10a9.953 9.953 0 0 1-5.03-1.355L2.004 22ZM8.391 7.308a.961.961 0 0 0-.371.1 1.293 1.293 0 0 0-.294.228c-.12.113-.188.211-.261.306A2.729 2.729 0 0 0 6.9 9.62c.002.49.13.967.33 1.413.409.902 1.082 1.857 1.971 2.742.214.213.423.427.648.626a9.448 9.448 0 0 0 3.84 2.046l.569.087c.185.01.37-.004.556-.013a1.99 1.99 0 0 0 .833-.231 4.83 4.83 0 0 0 .383-.22s.043-.028.125-.09c.135-.1.218-.171.33-.288.083-.086.155-.187.21-.302.078-.163.156-.474.188-.733.024-.198.017-.306.014-.373-.004-.107-.093-.218-.19-.265l-.582-.261s-.87-.379-1.401-.621a.498.498 0 0 0-.177-.041.482.482 0 0 0-.378.127v-.002c-.005 0-.072.057-.795.933a.35.35 0 0 1-.368.13 1.418 1.418 0 0 1-.191-.066c-.124-.052-.167-.072-.252-.109l-.005-.002a6.011 6.011 0 0 1-1.57-1c-.126-.11-.243-.23-.363-.346a6.298 6.298 0 0 1-1.02-1.268l-.059-.095a.923.923 0 0 1-.102-.205c-.038-.147.061-.265.061-.265s.243-.266.356-.41a4.38 4.38 0 0 0 .263-.373c.118-.19.155-.385.093-.536-.28-.684-.57-1.365-.868-2.041-.059-.134-.234-.23-.393-.249a4.439 4.439 0 0 0-.162-.016 3.385 3.385 0 0 0-.403.004v.001Z" /></g><defs><clipPath id="a"><path fill="#fff" d="M0 0h24v24H0z"/></clipPath></defs></svg>
